packages/dnb-eufemia/assets/icons/snowmobile_medium.svg

<svg width="24" height="24" viewBox="0 0 24 24" fill="none" xmlns="http://www.w3.org/2000/svg">
<path d="M18.7477 12.01H22.9064M23.25 17.2529C23.25 19.159 21.4911 19.4998 19.9984 19.4998M15.7462 19.4998H19.9984M11.9942 4.50815C12.9591 4.50815 14.1789 4.34742 14.6206 5.44988L15.5961 7.96546M9.36789 16.4919H10.1183M9.36789 16.4919C9.36789 16.2933 9.54407 16.1174 9.74308 16.1174C9.9421 16.1174 10.1183 16.2933 10.1183 16.4919M9.36789 16.4919C9.36789 16.6905 9.54407 16.8664 9.74308 16.8664C9.9421 16.8664 10.1183 16.6905 10.1183 16.4919M22.9064 12.01C22.1655 9.6804 20.6638 7.65145 18.6246 6.25878C17.2291 5.34219 16.2955 7.03466 15.5961 7.96546M22.9064 12.01C23.2641 13.1345 23.5212 15.0034 21.7482 15.0059H18.7477M15.5961 7.96546C15.0561 8.6841 14.5266 9.76303 13.495 9.76303H9.61402C8.02565 9.76269 7.66232 7.5164 6.12022 7.51607H2.44334C1.0758 7.50973 0.277322 9.12862 1.05563 10.2064C2.58943 11.6944 4.15537 13.1434 5.66522 14.656M5.66522 14.656L8.59249 13.5579C10.0557 13.0097 11.6834 13.7104 12.3883 15.0059M5.66522 14.656L1.88905 16.0725C0.162366 16.7223 0.569466 19.4971 2.51237 19.4998H9.67004C11.9157 19.5019 13.4482 16.9539 12.3883 15.0059M12.3883 15.0059L18.7477 15.0059M18.7477 15.0059L19.9984 19.4998" stroke="black" stroke-width="1.5" stroke-linecap="round" stroke-linejoin="round"/>
</svg>

<svg width="24" height="24" viewBox="0 0 24 24" fill="none" xmlns="http://www.w3.org/2000/svg"><path d="M18.748 12.01h4.158m.344 5.243c0 1.906-1.759 2.247-3.252 2.247m-4.252 0h4.252M11.994 4.508c.965 0 2.185-.16 2.627.942l.975 2.515m-6.228 8.527h.75m-.75 0c0-.199.176-.375.375-.375.2 0 .375.176.375.375m-.75 0c0 .198.176.374.375.374a.386.386 0 0 0 .375-.374m12.788-4.482a11.005 11.005 0 0 0-4.281-5.751c-1.396-.917-2.33.776-3.029 1.706m7.31 4.045c.358 1.124.615 2.993-1.158 2.996h-3m-3.152-7.04c-.54.718-1.07 1.797-2.101 1.797H9.614c-1.588 0-1.952-2.247-3.494-2.247H2.443C1.076 7.51.277 9.13 1.056 10.206c1.533 1.488 3.1 2.937 4.61 4.45m0 0 2.926-1.098c1.464-.548 3.091.152 3.796 1.448m-6.723-.35L1.89 16.073c-1.727.65-1.32 3.424.623 3.427H9.67c2.246.002 3.778-2.546 2.718-4.494m0 0h6.36m0 0 1.25 4.494" stroke="#000" stroke-width="1.5" stroke-linecap="round" stroke-linejoin="round"/></svg>
